X:471
T:Master Alistair Cunningham Weir 
C:Joe Buchanan's Scottish Tome - Page 099.1
I:099 1
R:Polka
Z:Carl Allison
L:1/8
M:2/4
K:D
|:A| d2fa e2f>e | d2 f2 e/e/ d/d/ A| B2cd AB cd | f2e^d e2a/g/f/e/ |
| d2fg e2f>e | d2f2 e/e/ dd A | B2 cd AB cd | f2 e>f d2 d>c |
| B2cd A2cd | G2A>G DF A2| B2cdd2 cd | f2e^d e2a/g/f/e/ |
| d2fa e2f>e| d2f2 e/e/ dd A| B2cd AB cd | f2 e>f d4 :|

